kritiquo/img/logo-design-process.svg

<?xml version="1.0" encoding="UTF-8"?>
<svg width="34px" height="25px" viewBox="0 0 34 25" version="1.1" xmlns="http://www.w3.org/2000/svg" xmlns:xlink="http://www.w3.org/1999/xlink">
    <title>icon</title>
    <g id="Page-1" stroke="none" stroke-width="1" fill="none" fill-rule="evenodd">
        <g id="Index" transform="translate(-1547, -3677)" fill="#FFFFFF" fill-rule="nonzero">
            <g id="icon" transform="translate(1547, 3677)">
                <path d="M25.5196811,8.97123526 C24.8792558,8.33901155 23.8407547,8.33901155 23.2003294,8.97123526 L12.908754,19.1310127 C10.7096038,21.3019997 7.13130065,21.3019997 4.93215041,19.1310127 C2.73300017,16.9600256 2.73300017,13.4275477 4.93215041,11.2565606 L16.3347371,0 L11.6965205,0 L2.61279877,8.96739196 C0.928032643,10.6305823 0,12.8419241 0,15.1940269 C0,17.5461297 0.928032643,19.7574714 2.61279877,21.4206618 C4.2975649,23.0838521 6.53759335,24 8.92020888,24 C11.3028244,24 13.5428529,23.0838521 15.227619,21.4206618 L25.5196811,11.2604039 C26.1601063,10.6281802 26.1601063,9.60345897 25.5196811,8.97123526 Z" id="Path"></path>
                <path d="M8.48032793,16.0285852 C9.12076517,16.6608215 10.1592857,16.6608215 10.799723,16.0285852 L21.091491,5.86860437 C23.2906824,3.69757387 26.8690525,3.69757387 29.0682439,5.86860437 C31.2674353,8.03963488 31.2674353,11.5721835 29.0682439,13.743214 L17.6654438,25 L22.3037472,25 L31.3871523,16.032909 C33.07195,14.3696853 34,12.1582993 34,9.80614941 C34,7.45399952 33.07195,5.2426135 31.3871523,3.57938986 C29.7023547,1.91616623 27.4622843,1 25.0796242,1 C22.696964,1 20.4568936,1.91616623 18.772096,3.57938986 L8.48032793,13.7393706 C7.83989069,14.371607 7.83989069,15.3963488 8.48032793,16.0285852 Z" id="Path"></path>
            </g>
        </g>
    </g>
</svg>

<svg width="34" height="25" xmlns="http://www.w3.org/2000/svg"><g fill="#FFF"><path d="M25.52 8.971a1.655 1.655 0 00-2.32 0l-10.29 10.16c-2.2 2.171-5.778 2.171-7.977 0a5.524 5.524 0 010-7.874L16.335 0h-4.638L2.613 8.967A8.692 8.692 0 000 15.194c0 2.352.928 4.563 2.613 6.227A8.92 8.92 0 008.92 24a8.92 8.92 0 006.308-2.58L25.52 11.26c.64-.632.64-1.657 0-2.289z"/><path d="M8.48 16.029c.64.632 1.68.632 2.32 0l10.29-10.16c2.2-2.171 5.778-2.171 7.977 0a5.524 5.524 0 010 7.874L17.665 25h4.639l9.083-8.967A8.692 8.692 0 0034 9.806a8.692 8.692 0 00-2.613-6.227A8.92 8.92 0 0025.08 1a8.92 8.92 0 00-6.308 2.58L8.48 13.74a1.604 1.604 0 000 2.289z"/></g></svg>
